X: 13478
T: Flower Of Swiss Cottage
R: reel
M: 4/4
K: Dminor
|:defd e2dA|cAAc dcAd|fefd gfed|cAAF DFAc|
defd e2dA|cAAc dcAF|ABAG FDFD|1 E2EC D2dc:|2 E2ED E2ED||
|:EFED CDFD|E3E FEC2|FAce gfed|cAA2 a3a|
agfe d2dA|cAAc dcAF|ABAG FDFD|1 E2ED E2ED:|2 E2EC D2dc||

